X:1
T:Title
%%score { ( 1 4 ) | ( 2 3 ) }
L:1/8
M:4/4
K:C
V:1 treble nm="Grand Piano"
V:4 treble 
V:2 bass 
V:3 bass 
V:1
 z4 z2[Q:1/4=104] G>G | [Ec]2 [Ec]2 [Ec]2 [CE]>F | [EG]>A [EG]>E C2 G>G | [Ec]2 [EB]2 [EA]2 [EB]2 | %4
 [Ec]>B [D^Fc]2 [G,B,DG]2 G>G | [Ec]2 [Ec]2 [CFc]2 [_B,C]2 |[M:3/4] [A,D]>E [A,DF]>G [C_EA]2 | %7
[M:1/4] B3/2 z/ |[M:4/4] [EG]2 [Ec]2 [Fd]3 [Fc] |[M:3/4] [Ec]6 |[M:1/4] (3GAB | %11
[M:4/4] [Ec]2 [Ec]2 [Ec]2 (3[G,CE][G,DF][A,_E^F] | [CEG]2 [CEG]2 [CEG]2 z2 | %13
 z z/ [DF]/ [DF]>F F>A G>F |[M:3/4] E6 |[M:1/4] (3GAB | %16
[M:4/4] [Ec]2 [Ec]2 [Ec]2 (3[G,CE][G,DF][A,_E^F] | [CEG]2 [CEG]2 [CEG]2 [CG]2 | %18
 [CFA]2 [CGc]2 [Fd]3 [Fc] |[M:3/4] [Ec]6 |] %20
V:2
 z4 z2 G,>G, | [C,G,]2 [C,G,]2 [C,G,]2 [C,G,]2 | [C,C]2 [C,C]2 [C,E,G,]2 G,2 | %3
 [C,G,]2 [C,G,]2 [C,G,]2 [B,,^G,]2 | z2 [D,A,C]2[K:treble][K:bass] z4 | %5
 [C,G,]2 [_B,,G,]2 [A,,F,]2 [G,,E,]2 |[M:3/4] [F,,F,]2 [F,,F,]2 [^F,,^F,]2 |[M:1/4] [^F,,^F,]2 | %8
[M:4/4] [G,,G,]2 [G,,G,]2 [G,,B,]3 [C,G,] |[M:3/4] C,>A, G,>E, C,2 | %10
[M:1/4] (3G,[K:treble][G,F][G,F] |[M:4/4][K:bass] [C,G,]2 [G,,G,]2 [C,G,]2 (3C,C,C, | %12
 C,2 G,,2 C,>[K:treble]G A>c | B6[K:bass][K:treble][K:bass] z2 |[M:3/4] C6 | %15
[M:1/4] (3G,[K:treble][G,^F][G,=F] |[M:4/4][K:bass] [C,G,]2 [G,,G,]2 [C,G,]2 (3C,C,C, | %17
 C,2 G,,2 C,2 E,2 | F,2 E,2 [G,B,]3 [C,G,] |[M:3/4] [C,G,]6 |] %20
V:3
 x8 | x8 | x8 | x8 | [A,,A,]2 z z/[K:treble] d/[K:bass] G,,>F, E,>D, | x8 |[M:3/4] x6 |[M:1/4] x2 | %8
[M:4/4] x8 |[M:3/4] x6 |[M:1/4] x2/3[K:treble] x4/3 |[M:4/4][K:bass] x8 | x11/2[K:treble] x5/2 | %13
 z z/[K:bass] G,,/ B,,>[D,D][K:treble] [G,D]>[G,B,F][K:bass] [G,CE]>[G,D] | %14
[M:3/4] [C,G,]2 C,2 C,2 |[M:1/4] x2/3[K:treble] x4/3 |[M:4/4][K:bass] x8 | x8 | x8 |[M:3/4] x6 |] %20
V:4
 x8 | x8 | x8 | x8 | x8 | x8 |[M:3/4] x6 |[M:1/4] [C_E]->[CEA] |[M:4/4] x8 |[M:3/4] x6 | %10
[M:1/4] x2 |[M:4/4] x8 | x8 | x8 |[M:3/4] z2 G,2 G,2 |[M:1/4] x2 |[M:4/4] x8 | x8 | x8 | %19
[M:3/4] x6 |] %20

